src/assets/icons/pc.svg

<svg width="24" height="22" viewBox="0 0 24 22" fill="none" xmlns="http://www.w3.org/2000/svg">
<path d="M20.4 0H3.6C2.64522 0 1.72955 0.379285 1.05442 1.05442C0.379285 1.72955 0 2.64522 0 3.6V13.2C0 14.1548 0.379285 15.0705 1.05442 15.7456C1.72955 16.4207 2.64522 16.8 3.6 16.8H10.8V19.2H6C5.68174 19.2 5.37652 19.3264 5.15147 19.5515C4.92643 19.7765 4.8 20.0817 4.8 20.4C4.8 20.7183 4.92643 21.0235 5.15147 21.2485C5.37652 21.4736 5.68174 21.6 6 21.6H18C18.3183 21.6 18.6235 21.4736 18.8485 21.2485C19.0736 21.0235 19.2 20.7183 19.2 20.4C19.2 20.0817 19.0736 19.7765 18.8485 19.5515C18.6235 19.3264 18.3183 19.2 18 19.2H13.2V16.8H20.4C21.3548 16.8 22.2705 16.4207 22.9456 15.7456C23.6207 15.0705 24 14.1548 24 13.2V3.6C24 2.64522 23.6207 1.72955 22.9456 1.05442C22.2705 0.379285 21.3548 0 20.4 0ZM21.6 13.2C21.6 13.5183 21.4736 13.8235 21.2485 14.0485C21.0235 14.2736 20.7183 14.4 20.4 14.4H3.6C3.28174 14.4 2.97652 14.2736 2.75147 14.0485C2.52643 13.8235 2.4 13.5183 2.4 13.2V3.6C2.4 3.28174 2.52643 2.97652 2.75147 2.75147C2.97652 2.52643 3.28174 2.4 3.6 2.4H20.4C20.7183 2.4 21.0235 2.52643 21.2485 2.75147C21.4736 2.97652 21.6 3.28174 21.6 3.6V13.2Z" fill="#202124"/>
</svg>

<svg xmlns="http://www.w3.org/2000/svg" width="24" height="22" fill="none"><path fill="#202124" d="M20.4 0H3.6A3.6 3.6 0 0 0 0 3.6v9.6a3.6 3.6 0 0 0 3.6 3.6h7.2v2.4H6a1.2 1.2 0 1 0 0 2.4h12a1.2 1.2 0 1 0 0-2.4h-4.8v-2.4h7.2a3.6 3.6 0 0 0 3.6-3.6V3.6A3.6 3.6 0 0 0 20.4 0m1.2 13.2a1.2 1.2 0 0 1-1.2 1.2H3.6a1.2 1.2 0 0 1-1.2-1.2V3.6a1.2 1.2 0 0 1 1.2-1.2h16.8a1.2 1.2 0 0 1 1.2 1.2z"/></svg>
